X:1
T:Title
C:Composer
L:1/4
M:4/4
I:linebreak $
K:C
!f! A,2 A,2 | ^G, E, A,2 | E E D C | B,3/2 F,/ E,/E,/F,/E,/ | A,2 C,2 | F, E, D,2 | E, ^F, ^G, C | %7
 B,3/2 E,/ A,,2 |] %8